Numix-Light/16/status/indicator-keyboard-Ki-2.svg

<?xml version="1.0" encoding="UTF-8" standalone="no"?>
<svg
   xmlns:dc="http://purl.org/dc/elements/1.1/"
   xmlns:cc="http://creativecommons.org/ns#"
   xmlns:rdf="http://www.w3.org/1999/02/22-rdf-syntax-ns#"
   xmlns:svg="http://www.w3.org/2000/svg"
   xmlns="http://www.w3.org/2000/svg"
   xmlns:sodipodi="http://sodipodi.sourceforge.net/DTD/sodipodi-0.dtd"
   xmlns:inkscape="http://www.inkscape.org/namespaces/inkscape"
   viewBox="0 0 16 16"
   id="svg2"
   version="1.1"
   inkscape:version="0.91 r13725"
   sodipodi:docname="indicator-keyboard-Ki-2.svg">
  <metadata
     id="metadata14">
    <rdf:RDF>
      <cc:Work
         rdf:about="">
        <dc:format>image/svg+xml</dc:format>
        <dc:type
           rdf:resource="http://purl.org/dc/dcmitype/StillImage" />
      </cc:Work>
    </rdf:RDF>
  </metadata>
  <defs
     id="defs12" />
  <sodipodi:namedview
     pagecolor="#ffffff"
     bordercolor="#666666"
     borderopacity="1"
     objecttolerance="10"
     gridtolerance="10"
     guidetolerance="10"
     inkscape:pageopacity="0"
     inkscape:pageshadow="2"
     inkscape:window-width="640"
     inkscape:window-height="480"
     id="namedview10"
     showgrid="false"
     inkscape:zoom="14.75"
     inkscape:cx="8"
     inkscape:cy="8"
     inkscape:window-x="65"
     inkscape:window-y="24"
     inkscape:window-maximized="0"
     inkscape:current-layer="svg2" />
  <path
     style="fill:#353535;fill-opacity:1"
     d="M 1.5996094 0 C 0.71320937 2.9605947e-16 0 0.71320937 0 1.5996094 L 0 14.400391 C 2.9605947e-16 15.286791 0.71320937 16 1.5996094 16 L 14.400391 16 C 15.286791 16 16 15.286791 16 14.400391 L 16 1.5996094 C 16 0.71320937 15.286791 0 14.400391 0 L 1.5996094 0 z M 8.8886719 4.5898438 C 9.0086719 4.5898438 9.1093594 4.6308438 9.1933594 4.7148438 C 9.2773594 4.7928438 9.3203125 4.9010625 9.3203125 5.0390625 C 9.3203125 5.1770625 9.2773594 5.2870937 9.1933594 5.3710938 C 9.1093594 5.4490937 9.0086719 5.4882813 8.8886719 5.4882812 C 8.7686719 5.4882812 8.6660312 5.4490937 8.5820312 5.3710938 C 8.4980313 5.2870937 8.4550781 5.1770625 8.4550781 5.0390625 C 8.4550781 4.9010625 8.4980313 4.7928438 8.5820312 4.7148438 C 8.6660312 4.6308438 8.7686719 4.5898437 8.8886719 4.5898438 z M 3.2402344 4.859375 L 3.8515625 4.859375 L 3.8515625 7.765625 C 4.0795625 7.561625 4.3314219 7.3284531 4.6074219 7.0644531 C 4.8894219 6.7944531 5.1655469 6.5239063 5.4355469 6.2539062 C 5.7115469 5.9839063 5.9689844 5.7264687 6.2089844 5.4804688 C 6.4489844 5.2344688 6.6411563 5.027375 6.7851562 4.859375 L 7.5234375 4.859375 C 7.3494375 5.045375 7.1385781 5.2673906 6.8925781 5.5253906 C 6.6465781 5.7773906 6.385375 6.0385937 6.109375 6.3085938 C 5.833375 6.5785938 5.5592031 6.845375 5.2832031 7.109375 C 5.0132031 7.367375 4.7687344 7.5949688 4.5527344 7.7929688 C 4.7267344 7.9009687 4.9133281 8.0352656 5.1113281 8.1972656 C 5.3153281 8.3532656 5.5186563 8.5287031 5.7226562 8.7207031 C 5.9326562 8.9067031 6.1379375 9.1044531 6.3359375 9.3144531 C 6.5399375 9.5184531 6.7283437 9.7255469 6.9023438 9.9355469 C 7.0823438 10.145547 7.2409062 10.348875 7.3789062 10.546875 C 7.5229063 10.744875 7.6404687 10.927703 7.7304688 11.095703 L 7.046875 11.095703 C 6.842875 10.783703 6.6115156 10.475922 6.3535156 10.169922 C 6.1015156 9.8639217 5.8347344 9.5746875 5.5527344 9.3046875 C 5.2707344 9.0346875 4.9815 8.7884062 4.6875 8.5664062 C 4.3995 8.3444063 4.1215625 8.1597656 3.8515625 8.0097656 L 3.8515625 11.095703 L 3.2402344 11.095703 L 3.2402344 4.859375 z M 8.5996094 6.4433594 L 9.1855469 6.4433594 L 9.1855469 11.095703 L 8.5996094 11.095703 L 8.5996094 6.4433594 z M 11.433594 8.7539062 C 11.827494 8.7539062 12.123366 8.851875 12.322266 9.046875 C 12.521166 9.237975 12.621094 9.5044563 12.621094 9.8476562 C 12.621094 9.9997563 12.593663 10.14475 12.539062 10.28125 C 12.484462 10.41385 12.410006 10.543169 12.316406 10.667969 C 12.226706 10.792769 12.122859 10.912297 12.005859 11.029297 C 11.888859 11.146297 11.769337 11.263859 11.648438 11.380859 C 11.547038 11.478359 11.449062 11.578288 11.351562 11.679688 C 11.257963 11.777187 11.17175 11.877116 11.09375 11.978516 C 11.01965 12.076016 10.958909 12.172031 10.912109 12.269531 C 10.869209 12.363131 10.847656 12.457181 10.847656 12.550781 L 10.847656 12.5625 L 12.759766 12.5625 L 12.759766 12.896484 L 10.425781 12.896484 C 10.425781 12.888684 10.423855 12.874969 10.419922 12.855469 L 10.419922 12.755859 C 10.419922 12.572559 10.453231 12.402094 10.519531 12.246094 C 10.585831 12.086194 10.670084 11.937275 10.771484 11.796875 C 10.876784 11.656475 10.992388 11.525197 11.117188 11.404297 C 11.245887 11.283397 11.369328 11.165834 11.486328 11.052734 C 11.583828 10.959134 11.673966 10.869003 11.759766 10.783203 C 11.849466 10.693503 11.927841 10.603366 11.994141 10.509766 C 12.060441 10.416166 12.113344 10.316237 12.152344 10.210938 C 12.191344 10.105638 12.210937 9.9900344 12.210938 9.8652344 C 12.210938 9.5922344 12.136481 9.39825 11.988281 9.28125 C 11.843981 9.16035 11.661753 9.0996094 11.439453 9.0996094 C 11.314653 9.0996094 11.202969 9.1152844 11.105469 9.1464844 C 11.007969 9.1776844 10.921756 9.2149125 10.847656 9.2578125 C 10.777456 9.2968125 10.716716 9.3379594 10.666016 9.3808594 C 10.615316 9.4237594 10.578087 9.4570688 10.554688 9.4804688 L 10.355469 9.2167969 C 10.378869 9.1894969 10.420016 9.1503094 10.478516 9.0996094 C 10.540916 9.0450094 10.617331 8.9921062 10.707031 8.9414062 C 10.800631 8.8907063 10.908397 8.8476 11.029297 8.8125 C 11.150197 8.7735 11.285394 8.7539063 11.433594 8.7539062 z "
     id="path4" />
</svg>

<svg xmlns="http://www.w3.org/2000/svg" viewBox="0 0 16 16">
 <path d="m 1.6 0 c -0.886 0 -1.6 0.713 -1.6 1.6 l 0 12.801 c 0 0.886 0.713 1.6 1.6 1.6 l 12.801 0 c 0.886 0 1.6 -0.713 1.6 -1.6 l 0 -12.801 c 0 -0.886 -0.713 -1.6 -1.6 -1.6 l -12.801 0 z m 7.289 4.59 c 0.12 0 0.221 0.041 0.305 0.125 c 0.084 0.078 0.127 0.186 0.127 0.324 c 0 0.138 -0.043 0.248 -0.127 0.332 c -0.084 0.078 -0.185 0.117 -0.305 0.117 c -0.12 0 -0.223 -0.039 -0.307 -0.117 c -0.084 -0.084 -0.127 -0.194 -0.127 -0.332 c 0 -0.138 0.043 -0.246 0.127 -0.324 c 0.084 -0.084 0.187 -0.125 0.307 -0.125 z m -5.648 0.27 l 0.611 0 l 0 2.906 c 0.228 -0.204 0.48 -0.437 0.756 -0.701 c 0.282 -0.27 0.558 -0.541 0.828 -0.811 c 0.276 -0.27 0.533 -0.527 0.773 -0.773 c 0.24 -0.246 0.432 -0.453 0.576 -0.621 l 0.738 0 c -0.174 0.186 -0.385 0.408 -0.631 0.666 c -0.246 0.252 -0.507 0.513 -0.783 0.783 c -0.276 0.27 -0.55 0.537 -0.826 0.801 c -0.27 0.258 -0.514 0.486 -0.73 0.684 c 0.174 0.108 0.361 0.242 0.559 0.404 c 0.204 0.156 0.407 0.331 0.611 0.523 c 0.21 0.186 0.415 0.384 0.613 0.594 c 0.204 0.204 0.392 0.411 0.566 0.621 c 0.18 0.21 0.339 0.413 0.477 0.611 c 0.144 0.198 0.262 0.381 0.352 0.549 l -0.684 0 c -0.204 -0.312 -0.435 -0.62 -0.693 -0.926 c -0.252 -0.306 -0.519 -0.595 -0.801 -0.865 c -0.282 -0.27 -0.571 -0.516 -0.865 -0.738 c -0.288 -0.222 -0.566 -0.407 -0.836 -0.557 l 0 3.086 l -0.611 0 l 0 -6.236 z m 5.359 1.584 l 0.586 0 l 0 4.652 l -0.586 0 l 0 -4.652 z m 2.834 2.311 c 0.394 0 0.69 0.098 0.889 0.293 c 0.199 0.191 0.299 0.458 0.299 0.801 c 0 0.152 -0.027 0.297 -0.082 0.434 c -0.055 0.133 -0.129 0.262 -0.223 0.387 c -0.09 0.125 -0.194 0.244 -0.311 0.361 c -0.117 0.117 -0.237 0.235 -0.357 0.352 c -0.101 0.098 -0.199 0.197 -0.297 0.299 c -0.094 0.097 -0.18 0.197 -0.258 0.299 c -0.074 0.097 -0.135 0.194 -0.182 0.291 c -0.043 0.094 -0.064 0.188 -0.064 0.281 l 0 0.012 l 1.912 0 l 0 0.334 l -2.334 0 c 0 -0.008 -0.002 -0.022 -0.006 -0.041 l 0 -0.1 c 0 -0.183 0.033 -0.354 0.1 -0.51 c 0.066 -0.16 0.151 -0.309 0.252 -0.449 c 0.105 -0.14 0.221 -0.272 0.346 -0.393 c 0.129 -0.121 0.252 -0.238 0.369 -0.352 c 0.098 -0.094 0.188 -0.184 0.273 -0.27 c 0.09 -0.09 0.168 -0.18 0.234 -0.273 c 0.066 -0.094 0.119 -0.194 0.158 -0.299 c 0.039 -0.105 0.059 -0.221 0.059 -0.346 c 0 -0.273 -0.074 -0.467 -0.223 -0.584 c -0.144 -0.121 -0.327 -0.182 -0.549 -0.182 c -0.125 0 -0.236 0.016 -0.334 0.047 c -0.098 0.031 -0.184 0.068 -0.258 0.111 c -0.07 0.039 -0.131 0.08 -0.182 0.123 c -0.051 0.043 -0.088 0.076 -0.111 0.1 l -0.199 -0.264 c 0.023 -0.027 0.065 -0.066 0.123 -0.117 c 0.062 -0.055 0.139 -0.108 0.229 -0.158 c 0.094 -0.051 0.201 -0.094 0.322 -0.129 c 0.121 -0.039 0.256 -0.059 0.404 -0.059 z" style="fill:#353535;fill-opacity:1"/>
</svg>
